X:1
T:James Gibb editions
T:Shall I sue? Dowland
T:#
%%score [ 1 2 3 4 ]
L:1/8
Q:1/4=120
M:3/2
K:F
V:1 treble nm="Soprano" snm="S"
V:2 treble nm="Alto" snm="A"
V:3 treble-8 nm="Tenor" snm="T"
V:4 bass nm="Bass" snm="B"
V:1
"^Shall I sue""^John Dowland\n(1563-1626)" B2 A2 G4 (d2 c2) | B4 A4 G4 | A3 B c4 (B3 c) | A12 | %4
w: Shall I sue, shall I|seek for grace?|Shall I pray, shall I|prove?|
w: Sil- ly wretch, for\- *|sake these dreams|of a vain de\- *|sire|
w: Pi- ty is but a|poor de- fence,|for a dy- ing *|heart,|
w: Jus- tice gives each *|man his own|though my love be *|just,|
 G3 A B4 (c2 c2) | d4 e4 f4 | d2 d2 c4 (A2 A2) | G12 |: (d2 d2) g4 (f2 _e2) | d4 (c2 B2) A4 | %10
w: Shall I strive to a|heav'n- ly joy,|with an earth- ly *|love?|Shall I think that a|bleed- ing * heart|
w: O be- think what *|high re- gard,|ho- ly hopes do~re- *|quire.|Fa- vour is as fair|as things * are,|
w: La- dies' eyes re\- *|spect no moan,|in a mean de\- *|sert.|She * is too *|wor- thy * far,|
w: Yet will not she pi-|ty my grief,|there- fore die I *|must,|Sil- ly heart then *|yield to * die,|
 B4 G2 c4 B2 | A12 | G2 A2 B4 (c2 c2) | d4 g4 f4 | d2 d2 c4 (A2 A2) | G12 :| %16
w: Or a wound- ed|eye,|Or a sigh can as-|cend the clouds|to at- tain so *|high.|
w: Trea- sure is not|bought,|Fa- vour is not *|won with words,|nor the wish of a|thought.|
w: for a worth so|base,|Cru- el, and but *|just is she,|in my just dis\- *|grace.|
w: per- ish in des-|pair,|Wit- ness yet how *|fain I die,|When I die for the|fair.|
V:2
 G2 A2 B4 A2 A2 | G4 (^F3 E) D4 | F2 F2 A4 (G2 G2) | ^F12 | D2 D2 G6 (AA) | B4 c2 B2 (A2 F2) | %6
w: Shall I sue, shall I|seek for * grace?|Shall I pray, shall I|prove?|Shall I strive to a|hea- ven- ly joy, *|
w: Sil- ly wretch, for- *|sake these * dreams|of a vain de\- *|sire|O be- think what *|high re- * gard, *|
w: Pi- ty is but a|poor de\- * fence,|for a dy- ing *|heart,|La- dies' eyes re\- *|spect no * moan, *|
w: Jus- tice gives each *|man his * own|though my love be *|just,|Yet will not she *|pi- ty my grief, *|
 B3 A G4 (^F2 F2) | G12 |: (F2 B2) B2 (GG) c3 B | A2 B2 (A2 G2) F4 | D4 E2 F4 G2 | ^F12 | %12
w: with an earth- ly *|love?|Shall I think that a bleed- ing|heart, a bleed- ing heart|Or a wound- ed|eye,|
w: ho- ly hopes do re-|quire.|Fa- vour is as fair as things|are, as things * are,|Trea- sure is not|bought,|
w: in a mean de\- *|sert.|She * is too * wor- thy|far, too wor- thy far,|for a worth so|base,|
w: there- fore die I *|must,|Sil- ly heart then * yield to|die, then yield to die,|per- ish in des-|pair,|
 D2 D2 G2 (DD) A4 | F2 B4 G2 A2 c2 | B3 A G2 G2 (^F2 F2) | G12 :| %16
w: Or a sigh can as- cend|the clouds. as- cend the|clouds to at- tain so *|high.|
w: Fa- vour is not * won|with words, not won with|words, nor the wish of a|thought.|
w: Cru- el, and but just is|she, but just is she,|in my just * dis\- *|grace.|
w: Wit- ness yet how * fain|I die, how fain I|die. When I die for the|fair.|
V:3
 d6 d2 d4 | (d2 d2) d2 A2 B4 | c2 c2 f4 (d2 d2) | d12 | B3 c (d3 d) e2 (f2 | f2 g2 c6 (d2 | %6
w: Shall I sue,|shall I seek for grace?|Shall I pray, shall I|prove?|Shall I strive to a hea-|ven- ly joy, with|
w: Sil- ly wretch,|for\- * sake these dreams|of a vain de\- *|sire|O be- thinks * what high|* re- gard. ho\-|
w: Pi- ty is|but a poor de- fence,|for a dy- ing *|heart,|La- dies' eyes * re- spect|* no moan, in|
w: Jus- tice gives|each man his * own|though my love be *|just,|Yet will not * she pi-|ty my grief, there\-|
 d2) B2 _e4 d3 c) | =B12 |: z2 d4 e2 f2 (cc) | d6 G2 A2 (d2 | d2 G4 A2 (D2 d2) | d12 | %12
w: * an earth- ly *|love?|Shall I think that a|bleed- ing heart Or|* a wound- ed *|eye,|
w: * ly hopes do re-|quire.|Fa- vour is as fair|as things are, Trea\-|* sure is not *|bought,|
w: * a mean de\- *|sert.|She is too wor- thy|far, for a worth,|* for a worth so|base,|
w: * fore die I *|must,|Sil- ly heart then *|yield to die, per\-|* ish in des\- *|pair,|
 B3 c d2 BB) f4- | f2 B4 c4 A2 | G2 (g2 g2) _e2 d3 c | =B12 :| %16
w: Or a sigh can as- cend|* the clouds, the|clouds to * at- tain so|high.|
w: Fa- vour is not * won|* with words, with|words, nor the wish of a|thought.|
w: Cru- el and but * just|* is she, is|she, in my just dis\- *|grace.|
w: Wit- ness yet how * fain|* I die, I|die, When I die for the|fair.|
V:4
 G,6 G,2 ^F,4 | (G,2 G,,2) D,2 C,2 B,,4 | A,,2 A,,2 F,,4 (G,,2 G,,2) | D,12 | G,6 G,2 C,2 (F,F,) | %5
w: Shall I sue.|shall I seek for grace?|Shall I pray, shall I|prove?|Shall I strive to a|
w: Sil- ly wretch,|for\- * sake these dreams|of a vain de\- *|sire|O be- thinks what *|
w: Pi- ty is|but a poor de- fence,|for a dy- ing *|heart,|La- dies' eyes re\- *|
w: Jus- tice gives|each * man his own|though my love be *|just,|Yet will not she *|
 (B,,2 B,,2) (A,,2 G,,2) F,,2 B,,2- | B,,2 G,,2 C,3 (A,, D,4) | G,,12 |: B,3 A, G,4 A,3 G, | %9
w: hea\- * ven- ly joy, with|* an earth- ly *|love?|Shall I think, shall I|
w: high * re\- * gard, ho\-|* ly hopes do re-|quire.|Fa- vour is, fa- vour|
w: spect * no * moan, in|* a mean de\- *|sert.|She is too, she is|
w: pi- ty my * grief, there\-|* fore die I *|must,|Sil- ly heart, sil- ly|
 ^F,2 G,4 G,2 (D,3 C,) | B,,4 C,2 A,,2 (B,,2 G,,2) | D,12 | G,6 G,2 A,2 (F,F,) | B,4 _E,4 F,4 | %14
w: think that a bleed- ing|heart Or a wound- ed|eye,|Or a sigh can as-|cend the clouds|
w: is, as fair as things|are, Trea- sure is not|bought,|Fa- vour is not *|won with words,|
w: too wor- thy far, *|for a worth so *|base,|Cru- el and but *|just is she,|
w: heart, then yield to *|die. per- ish in des-|pair,|Wit- ness yet how *|fain I die,|
 G,2 G,2 C,4 (D,2 D,2) | G,,12 :| %16
w: to at- tain so *|high.|
w: nor the wish of a|thought.|
w: in my just dis\- *|grace.|
w: When I die for the|fair.|

